flaticon/security/shield-3.svg

<svg xmlns="http://www.w3.org/2000/svg" width="32" height="32" viewBox="0 0 24 24">
    <path d="M 20.800781 3.195312 C 14.960938 3.195312 12.34375 0.179688 12.308594 0.136719 C 12.15625 -0.046875 11.84375 -0.046875 11.691406 0.136719 C 11.667969 0.167969 9.078125 3.191406 3.199219 3.191406 C 2.976562 3.191406 2.796875 3.371094 2.796875 3.59375 L 2.796875 11.230469 C 2.796875 15.402344 4.671875 19.371094 7.816406 21.839844 C 9.085938 22.835938 10.453125 23.558594 11.886719 23.984375 C 11.921875 23.992188 11.960938 24 12 24 C 12.039062 24 12.078125 23.992188 12.113281 23.984375 C 13.546875 23.558594 14.914062 22.835938 16.183594 21.839844 C 19.328125 19.371094 21.203125 15.402344 21.203125 11.230469 L 21.203125 3.59375 C 21.203125 3.371094 21.023438 3.195312 20.800781 3.195312 Z M 20.402344 11.230469 C 20.402344 15.160156 18.640625 18.894531 15.6875 21.210938 C 14.535156 22.121094 13.292969 22.78125 12 23.183594 C 10.707031 22.78125 9.464844 22.121094 8.3125 21.210938 C 5.359375 18.894531 3.597656 15.160156 3.597656 11.230469 L 3.597656 3.988281 C 8.496094 3.878906 11.144531 1.789062 12 0.96875 C 12.855469 1.789062 15.503906 3.878906 20.402344 3.988281 Z M 20.402344 11.230469"/>
    <path d="M 11.773438 3.195312 C 10.570312 4.015625 8.507812 5.070312 5.546875 5.449219 C 5.347656 5.476562 5.199219 5.644531 5.199219 5.847656 L 5.199219 11.230469 C 5.199219 14.675781 6.730469 17.9375 9.300781 19.953125 C 10.109375 20.589844 10.96875 21.089844 11.855469 21.4375 C 11.902344 21.453125 11.949219 21.464844 12 21.464844 C 12.078125 21.464844 12.15625 21.441406 12.226562 21.394531 C 12.335938 21.320312 12.398438 21.195312 12.398438 21.0625 L 12.398438 3.527344 C 12.398438 3.378906 12.316406 3.242188 12.1875 3.171875 C 12.058594 3.105469 11.898438 3.113281 11.773438 3.195312 Z M 11.601562 20.453125 C 10.980469 20.160156 10.375 19.78125 9.796875 19.324219 C 7.417969 17.457031 6 14.429688 6 11.230469 L 6 6.195312 C 8.480469 5.828125 10.339844 5.003906 11.601562 4.253906 Z M 11.601562 20.453125"/>
</svg>

<svg xmlns="http://www.w3.org/2000/svg" width="32" height="32" viewBox="0 0 24 24">
    <path d="M20.8 3.195c-5.84 0-8.456-3.015-8.491-3.058a.415.415 0 0 0-.618 0C11.668.168 9.078 3.19 3.2 3.19a.402.402 0 0 0-.402.403v7.636c0 4.172 1.875 8.141 5.02 10.61 1.269.996 2.636 1.719 4.07 2.144A.528.528 0 0 0 12 24c.04 0 .078-.008.113-.016 1.434-.425 2.801-1.148 4.07-2.144 3.145-2.469 5.02-6.438 5.02-10.61V3.594a.398.398 0 0 0-.402-.399zm-.398 8.035c0 3.93-1.761 7.665-4.715 9.98-1.152.911-2.394 1.571-3.687 1.974-1.293-.403-2.535-1.063-3.688-1.973-2.953-2.316-4.714-6.05-4.714-9.98V3.987C8.496 3.878 11.145 1.79 12 .968c.855.821 3.504 2.91 8.402 3.02zm0 0"/>
    <path d="M11.773 3.195c-1.203.82-3.265 1.875-6.226 2.254a.4.4 0 0 0-.348.399v5.382c0 3.446 1.531 6.707 4.102 8.723a10.113 10.113 0 0 0 2.554 1.485.452.452 0 0 0 .145.027.399.399 0 0 0 .398-.402V3.526a.406.406 0 0 0-.21-.355.414.414 0 0 0-.415.023zm-.171 17.258a9.358 9.358 0 0 1-1.805-1.129C7.418 17.457 6 14.43 6 11.23V6.195c2.48-.367 4.34-1.191 5.602-1.941zm0 0"/>
</svg>
